icons/svg/place_of_worship/taoist.svg

<?xml version="1.0" encoding="UTF-8" standalone="no"?>
<!-- Created with Inkscape (http://www.inkscape.org/) -->

<svg
   xmlns:dc="http://purl.org/dc/elements/1.1/"
   xmlns:cc="http://creativecommons.org/ns#"
   xmlns:rdf="http://www.w3.org/1999/02/22-rdf-syntax-ns#"
   xmlns:svg="http://www.w3.org/2000/svg"
   xmlns="http://www.w3.org/2000/svg"
   xmlns:sodipodi="http://sodipodi.sourceforge.net/DTD/sodipodi-0.dtd"
   xmlns:inkscape="http://www.inkscape.org/namespaces/inkscape"
   version="1.0"
   width="580"
   height="580"
   id="svg2"
   sodipodi:version="0.32"
   inkscape:version="0.91 r13725"
   sodipodi:docname="taoist.svg"
   inkscape:output_extension="org.inkscape.output.svg.inkscape">
  <metadata
     id="metadata2975">
    <rdf:RDF>
      <cc:Work
         rdf:about="">
        <dc:format>image/svg+xml</dc:format>
        <dc:type
           rdf:resource="http://purl.org/dc/dcmitype/StillImage" />
        <cc:license
           rdf:resource="http://web.resource.org/cc/PublicDomain" />
        <dc:language>en</dc:language>
        <dc:title />
      </cc:Work>
    </rdf:RDF>
  </metadata>
  <sodipodi:namedview
     inkscape:window-height="1006"
     inkscape:window-width="1920"
     inkscape:pageshadow="2"
     inkscape:pageopacity="0.0"
     guidetolerance="10.0"
     gridtolerance="10.0"
     objecttolerance="10.0"
     borderopacity="1.0"
     bordercolor="#666666"
     pagecolor="#ffffff"
     id="base"
     inkscape:zoom="0.65172414"
     inkscape:cx="321.58746"
     inkscape:cy="391.49394"
     inkscape:window-x="1920"
     inkscape:window-y="0"
     inkscape:current-layer="svg2"
     showgrid="false"
     inkscape:window-maximized="1" />
  <defs
     id="defs4">
    <inkscape:perspective
       sodipodi:type="inkscape:persp3d"
       inkscape:vp_x="0 : 290 : 1"
       inkscape:vp_y="0 : 1000 : 0"
       inkscape:vp_z="580 : 290 : 1"
       inkscape:persp3d-origin="290 : 193.33333 : 1"
       id="perspective2441" />
    <inkscape:perspective
       id="perspective2466"
       inkscape:persp3d-origin="372.04724 : 350.78739 : 1"
       inkscape:vp_z="744.09448 : 526.18109 : 1"
       inkscape:vp_y="0 : 1000 : 0"
       inkscape:vp_x="0 : 526.18109 : 1"
       sodipodi:type="inkscape:persp3d" />
    <inkscape:perspective
       id="perspective3333"
       inkscape:persp3d-origin="372.04724 : 350.78739 : 1"
       inkscape:vp_z="744.09448 : 526.18109 : 1"
       inkscape:vp_y="0 : 1000 : 0"
       inkscape:vp_x="0 : 526.18109 : 1"
       sodipodi:type="inkscape:persp3d" />
    <inkscape:perspective
       id="perspective3401"
       inkscape:persp3d-origin="372.04724 : 350.78739 : 1"
       inkscape:vp_z="744.09448 : 526.18109 : 1"
       inkscape:vp_y="0 : 1000 : 0"
       inkscape:vp_x="0 : 526.18109 : 1"
       sodipodi:type="inkscape:persp3d" />
    <inkscape:perspective
       id="perspective3464"
       inkscape:persp3d-origin="372.04724 : 350.78739 : 1"
       inkscape:vp_z="744.09448 : 526.18109 : 1"
       inkscape:vp_y="0 : 1000 : 0"
       inkscape:vp_x="0 : 526.18109 : 1"
       sodipodi:type="inkscape:persp3d" />
    <inkscape:perspective
       id="perspective3581"
       inkscape:persp3d-origin="225 : 150 : 1"
       inkscape:vp_z="450 : 225 : 1"
       inkscape:vp_y="0 : 1000 : 0"
       inkscape:vp_x="0 : 225 : 1"
       sodipodi:type="inkscape:persp3d" />
    <inkscape:perspective
       id="perspective4312"
       inkscape:persp3d-origin="225 : 150 : 1"
       inkscape:vp_z="450 : 225 : 1"
       inkscape:vp_y="0 : 1000 : 0"
       inkscape:vp_x="0 : 225 : 1"
       sodipodi:type="inkscape:persp3d" />
  </defs>
  <g
     id="g1327"
     transform="translate(0.0735,-0.43022222)">
    <path
       d="M 66.275,1.768 C 24.94,1.768 1.704,23.139 1.704,66.804 l 0,450.123 c 0,40.844 20.895,62.229 62.192,62.229 l 452.024,0 c 41.307,0 62.229,-20.315 62.229,-62.229 l 0,-450.123 c 0,-42.601 -20.922,-65.036 -63.521,-65.036 -0.004,0 -448.495,-0.143 -448.353,0 z"
       style="fill:#111111;stroke:#eeeeee;stroke-width:3.40799999"
       id="path1329"
       inkscape:connector-curvature="0" />
  </g>
  <path
     inkscape:connector-curvature="0"
     style="color:#000000;display:inline;overflow:visible;visibility:visible;fill:#ffffff;fill-opacity:1;fill-rule:nonzero;stroke:none;stroke-width:31.39999962;marker:none;enable-background:accumulate"
     d="M 290,44.175989 C 154.24179,44.175989 44.175989,154.24179 44.175989,290 44.175989,425.75821 154.24179,535.82401 290,535.82401 425.75821,535.82401 535.82401,425.75821 535.82401,290 l -0.0296,-3.7988 C 533.71613,151.9425 424.27477,44.175989 290,44.175989 Z m 33.59565,31.458825 C 426.25858,91.596684 505.28968,179.5659 506.94718,286.64637 l 0,3.35363 c 0,119.82406 -97.12312,216.94718 -216.94718,216.94718 -5.61676,0 -11.16973,-0.20404 -16.67911,-0.62324 -0.0198,-0.002 -0.0396,0.002 -0.0594,0 -75.96705,-7.64327 -108.45317,-61.87175 -108.53294,-102.47861 -0.0426,-21.66108 3.13875,-49.19924 20.29984,-71.61334 17.16109,-22.41411 48.33814,-39.85126 104.82318,-41.16358 l 0.80131,-0.0296 c 56.38407,-1.55485 84.77601,-27.62037 98.91723,-55.70586 14.20002,-28.20227 14.19462,-58.42442 14.48293,-67.96293 l 0,-0.0296 c 0.29822,-9.82262 -3.00292,-33.07887 -18.96433,-54.28141 C 373.05937,97.079561 353.79552,82.357239 323.59565,75.634814 Z M 290,136.77178 c 17.44862,0 31.66362,13.98263 31.93368,31.42915 l 0,0.50453 c 0,17.64137 -14.2923,31.93367 -31.93368,31.93367 -17.64138,0 -31.93368,-14.2923 -31.93368,-31.93367 0,-17.64138 14.2923,-31.93368 31.93368,-31.93368 z m 0,242.58909 c -17.64138,0 -31.93368,14.2923 -31.93368,31.93367 0,17.64138 14.2923,31.93368 31.93368,31.93368 17.64138,0 31.93368,-14.2923 31.93368,-31.93368 l 0,-0.50452 C 321.66362,393.3435 307.44862,379.36087 290,379.36087 Z"
     id="path3761" />
</svg>

<svg width="580" height="580" viewBox="0 0 580 580" fill="none" xmlns="http://www.w3.org/2000/svg">
<g clip-path="url(#clip0)">
<path d="M66.3483 1.33779C25.0133 1.33779 1.77734 22.7088 1.77734 66.3738V516.497C1.77734 557.341 22.6723 578.726 63.9693 578.726H515.993C557.3 578.726 578.222 558.411 578.222 516.497V66.3738C578.222 23.7728 557.3 1.33779 514.701 1.33779C514.697 1.33779 66.2063 1.19479 66.3483 1.33779V1.33779Z" fill="#111111" stroke="#EEEEEE" stroke-width="3.408"/>
<path d="M290 44.176C154.242 44.176 44.1758 154.242 44.1758 290C44.1758 425.758 154.242 535.824 290 535.824C425.758 535.824 535.824 425.758 535.824 290L535.794 286.201C533.716 151.942 424.275 44.176 290 44.176ZM323.595 75.6348C426.258 91.5967 505.289 179.566 506.947 286.646V290C506.947 409.824 409.824 506.947 290 506.947C284.383 506.947 278.83 506.743 273.321 506.324C273.301 506.322 273.281 506.326 273.261 506.324C197.294 498.681 164.808 444.452 164.728 403.845C164.686 382.184 167.867 354.646 185.028 332.232C202.189 309.818 233.366 292.381 289.851 291.068L290.653 291.039C347.037 289.484 375.429 263.418 389.57 235.333C403.77 207.131 403.765 176.909 404.053 167.37V167.34C404.351 157.518 401.05 134.262 385.089 113.059C373.059 97.0795 353.795 82.3572 323.595 75.6348ZM290 136.772C307.448 136.772 321.663 150.754 321.933 168.201V168.705C321.933 186.347 307.641 200.639 290 200.639C272.358 200.639 258.066 186.347 258.066 168.705C258.066 151.064 272.358 136.772 290 136.772V136.772ZM290 379.361C272.358 379.361 258.066 393.653 258.066 411.294C258.066 428.936 272.358 443.228 290 443.228C307.641 443.228 321.933 428.936 321.933 411.294V410.79C321.663 393.343 307.448 379.361 290 379.361Z" fill="white"/>
</g>
<defs>
<clipPath id="clip0">
<path d="M0 0H580V580H0V0Z" fill="white"/>
</clipPath>
</defs>
</svg>
